**harm	**harte	**silbe	**silbe	**rhyme	**timestamp	**phrase	**leadinstrument	**kern
*M4/4	*M4/4	*	*	*	*	*	*	*
*	*	*	*	*	*	*	*	*
*	*	*	*	*	*	*	*	*
*C:	*C:	*	*	*	*	*	*	*C:
*	*	*	*	*	*	*	*	*
*	*	*	*	*	*	*	*	*
1r;	N	.	.	.	0	.	r	1r;
=1	=1	=1	=1	=1	=1	=1	=1	=1
*>Letter>A	*>Letter>A	*>Letter>A	*>Letter>A	*>Letter>A	*>Letter>A	*>Letter>A	*>Letter>A	*>Letter>A
*>Label>Intro	*>Label>Intro	*>Label>Intro	*>Label>Intro	*>Label>Intro	*>Label>Intro	*>Label>Intro	*>Label>Intro	*>Label>Intro
2.r	N	.	.	.	0.348	newline	r	1r
4V7	G:7	.	.	.	0.731	.	r	4G 4b 4dd 4ff
=2	=2	=2	=2	=2	=2	=2	=2	=2
1Im7	C:7	.	Jit-	.	0.859	newline	.	1C 1e 1g 1b
.	.	.	-ter-	.	.	.	.	.
.	.	.	-bug	.	.	.	.	.
.	.	.	.	.	.	.	.	.
=3	=3	=3	=3	=3	=3	=3	=3	=3
1r	N	.	.	.	2.334	.	.	1r
=4	=4	=4	=4	=4	=4	=4	=4	=4
1Im7	C:7	.	Jit-	.	3.808	.	.	1C 1e 1g 1b
.	.	.	-ter-	.	.	.	.	.
.	.	.	-bug	.	.	.	.	.
.	.	.	.	.	.	.	.	.
=5	=5	=5	=5	=5	=5	=5	=5	=5
1r	N	.	.	.	5.283	.	.	1r
=6	=6	=6	=6	=6	=6	=6	=6	=6
1Im7	C:7	.	Jit-	.	6.757	.	.	1C 1e 1g 1b
.	.	.	-ter-	.	.	.	.	.
.	.	.	-bug	.	.	.	.	.
.	.	.	.	.	.	.	.	.
=7	=7	=7	=7	=7	=7	=7	=7	=7
1r	N	.	.	.	8.231	.	.	1r
=8	=8	=8	=8	=8	=8	=8	=8	=8
1Im7	C:7	.	Jit-	.	9.706	.	.	1C 1e 1g 1b
.	.	.	-ter-	.	.	.	.	.
.	.	.	-bug	.	.	.	.	.
.	.	.	.	.	.	.	.	.
=9	=9	=9	=9	=9	=9	=9	=9	=9
1r	N	.	.	.	11.18	.	.	1r
.	.	.	.	.	.	.	.	.
.	.	You	.	.	.	.	.	.
.	.	put	.	.	.	.	.	.
.	.	the	.	.	.	.	.	.
=10	=10	=10	=10	=10	=10	=10	=10	=10
*>Letter>B	*>Letter>B	*>Letter>B	*>Letter>B	*>Letter>B	*>Letter>B	*>Letter>B	*>Letter>B	*>Letter>B
*>Label>Verse	*>Label>Verse	*>Label>Verse	*>Label>Verse	*>Label>Verse	*>Label>Verse	*>Label>Verse	*>Label>Verse	*>Label>Verse
1I	C:maj	boom	.	.	12.655	newline	voice	1C 1e 1g
.	.	boom	.	.	.	.	.	.
.	.	in-	.	.	.	.	.	.
.	.	-to	.	.	.	.	.	.
.	.	my	.	.	.	.	.	.
.	.	heart	.	A	.	.	.	.
=11	=11	=11	=11	=11	=11	=11	=11	=11
1I	C:maj	_	.	.	14.124	.	voice	1C 1e 1g
.	.	.	.	.	.	.	.	.
.	.	.	.	.	.	.	.	.
.	.	You	.	.	.	.	.	.
.	.	send	.	.	.	.	.	.
.	.	my	.	.	.	.	.	.
=12	=12	=12	=12	=12	=12	=12	=12	=12
1ii	D:min	soul	.	.	15.592	.	voice	1D 1f 1a
.	.	sky	.	.	.	.	.	.
.	.	high	.	.	.	.	.	.
.	.	when	.	.	.	.	.	.
.	.	your	.	.	.	.	.	.
=13	=13	=13	=13	=13	=13	=13	=13	=13
1I	C:maj	lo-	.	.	17.061	.	voice	1C 1e 1g
.	.	-vin'	.	.	.	.	.	.
.	.	starts	.	A	.	.	.	.
.	.	_	.	.	.	.	.	.
.	.	.	.	.	.	.	.	.
=14	=14	=14	=14	=14	=14	=14	=14	=14
1I	C:maj	Jit-	.	.	18.53	newline	voice	1C 1e 1g
.	.	-ter-	.	.	.	.	.	.
.	.	-bug	.	.	.	.	.	.
.	.	in-	.	.	.	.	.	.
.	.	-to	.	.	.	.	.	.
.	.	my	.	.	.	.	.	.
.	.	brain	.	B	.	.	.	.
=15	=15	=15	=15	=15	=15	=15	=15	=15
1I	C:maj	_	.	.	20.016	.	voice	1C 1e 1g
.	.	_	.	.	.	.	.	.
.	.	.	.	.	.	.	.	.
.	.	Goes	.	.	.	.	.	.
.	.	a	.	.	.	.	.	.
=16	=16	=16	=16	=16	=16	=16	=16	=16
1ii	D:min	bang	.	B	21.502	.	voice	1D 1f 1a
.	.	bang	.	B	.	.	.	.
.	.	bang	.	B	.	.	.	.
.	.	till	.	.	.	.	.	.
.	.	my	.	.	.	.	.	.
=17	=17	=17	=17	=17	=17	=17	=17	=17
1I	C:maj	feet	.	.	22.988	.	voice	1C 1e 1g
.	.	do	.	.	.	.	.	.
.	.	the	.	.	.	.	.	.
.	.	same	.	B	.	.	.	.
.	.	_	.	.	.	.	.	.
.	.	.	.	.	.	.	.	.
.	.	But	.	.	.	.	.	.
=18	=18	=18	=18	=18	=18	=18	=18	=18
*>Letter>C	*>Letter>C	*>Letter>C	*>Letter>C	*>Letter>C	*>Letter>C	*>Letter>C	*>Letter>C	*>Letter>C
*>Label>Prechorus	*>Label>Prechorus	*>Label>Prechorus	*>Label>Prechorus	*>Label>Prechorus	*>Label>Prechorus	*>Label>Prechorus	*>Label>Prechorus	*>Label>Prechorus
1ii7	D:min7	some-	.	.	24.474	newline	voice	1D 1f 1a 1cc
.	.	-things	.	.	.	.	.	.
.	.	bug-	.	.	.	.	.	.
.	.	-gin'	.	.	.	.	.	.
.	.	you	.	.	.	.	.	.
.	.	.	.	.	.	.	.	.
=19	=19	=19	=19	=19	=19	=19	=19	=19
1iii7	E:min7	Some-	.	.	25.948	.	voice	1E 1g 1b 1dd
.	.	-thing	.	.	.	.	.	.
.	.	ain't	.	.	.	.	.	.
.	.	right	.	C	.	.	.	.
.	.	My	.	.	.	.	.	.
=20	=20	=20	=20	=20	=20	=20	=20	=20
1IV	F:maj	best	.	.	27.423	.	voice	1F 1a 1cc
.	.	friend	.	.	.	.	.	.
.	.	told	.	.	.	.	.	.
.	.	me	.	.	.	.	.	.
.	.	what	.	.	.	.	.	.
.	.	you	.	.	.	.	.	.
=21	=21	=21	=21	=21	=21	=21	=21	=21
1iii7	E:min7	_	.	.	28.897	.	voice	1E 1g 1b 1dd
.	.	did	.	.	.	.	.	.
.	.	last	.	.	.	.	.	.
.	.	night	.	C	.	.	.	.
.	.	.	.	.	.	.	.	.
=22	=22	=22	=22	=22	=22	=22	=22	=22
1ii7	D:min7	Left	.	.	30.372	newline	voice	1D 1f 1a 1cc
.	.	me	.	.	.	.	.	.
.	.	sleep-	.	(D	.	.	.	.
.	.	-in'	.	d)	.	.	.	.
.	.	.	.	.	.	.	.	.
=23	=23	=23	=23	=23	=23	=23	=23	=23
1iii7	E:min7	in	.	.	31.848	.	voice	1E 1g 1b 1dd
.	.	my	.	.	.	.	.	.
.	.	bed	.	E	.	.	.	.
.	.	_	.	.	.	.	.	.
.	.	.	.	.	.	.	.	.
=24	=24	=24	=24	=24	=24	=24	=24	=24
1IV	F:maj	I	.	.	33.325	.	voice	1F 1a 1cc
.	.	was	.	.	.	.	.	.
.	.	dream-	.	(D	.	.	.	.
.	.	-ing	.	d)	.	.	.	.
.	.	but	.	.	.	.	.	.
.	.	I	.	.	.	.	.	.
=25	=25	=25	=25	=25	=25	=25	=25	=25
1V	G:maj	shoul-	.	.	34.802	.	voice	1G 1b 1dd
.	.	-d've	.	.	.	.	.	.
.	.	been	.	.	.	.	.	.
.	.	with	.	.	.	.	.	.
.	.	you	.	.	.	.	.	.
.	.	in-	.	.	.	.	.	.
.	.	-stead	.	E	.	.	.	.
=26	=26	=26	=26	=26	=26	=26	=26	=26
1V	G:maj	_	.	.	36.279	.	voice	1G 1b 1dd
.	.	.	.	.	.	.	.	.
.	.	Wake	Wake	.	.	.	.	.
.	.	me	me	.	.	.	.	.
.	.	up	up	.	.	.	.	.
=27	=27	=27	=27	=27	=27	=27	=27	=27
*>Letter>B	*>Letter>B	*>Letter>B	*>Letter>B	*>Letter>B	*>Letter>B	*>Letter>B	*>Letter>B	*>Letter>B
*>Label>Chorus	*>Label>Chorus	*>Label>Chorus	*>Label>Chorus	*>Label>Chorus	*>Label>Chorus	*>Label>Chorus	*>Label>Chorus	*>Label>Chorus
1I	C:maj	.	.	.	37.756	newline	voice	1C 1e 1g
.	.	.	.	.	.	.	.	.
.	.	be-	be-	.	.	.	.	.
.	.	-fore	-fore	.	.	.	.	.
.	.	you	you	.	.	.	.	.
.	.	go	go	F	.	.	.	.
=28	=28	=28	=28	=28	=28	=28	=28	=28
1I	C:maj	_	_	.	39.23	.	voice	1C 1e 1g
.	.	go	go	F	.	.	.	.
.	.	.	.	.	.	.	.	.
.	.	Don't	Don't	.	.	.	.	.
.	.	leave	leave	.	.	.	.	.
.	.	me	me	.	.	.	.	.
.	.	.	.	.	.	.	.	.
.	.	hang-	hang-	.	.	.	.	.
=29	=29	=29	=29	=29	=29	=29	=29	=29
1ii	D:min	_	_	.	40.705	.	voice	1D 1f 1a
.	.	-in'	-in'	.	.	.	.	.
.	.	on	on	.	.	.	.	.
.	.	like	like	.	.	.	.	.
.	.	a	a	.	.	.	.	.
.	.	yo-	yo-	F	.	.	.	.
=30	=30	=30	=30	=30	=30	=30	=30	=30
1I	C:maj	_	_	.	42.179	.	voice	1C 1e 1g
.	.	-yo	-yo	F	.	.	.	.
.	.	.	.	.	.	.	.	.
.	.	Wake	Wake	.	.	.	.	.
.	.	me	me	.	.	.	.	.
.	.	up	up	.	.	.	.	.
=31	=31	=31	=31	=31	=31	=31	=31	=31
1I	C:maj	.	.	.	43.654	newline	voice	1C 1e 1g
.	.	.	.	.	.	.	.	.
.	.	be-	be-	.	.	.	.	.
.	.	-fore	-fore	.	.	.	.	.
.	.	you	you	.	.	.	.	.
.	.	go	go	F	.	.	.	.
=32	=32	=32	=32	=32	=32	=32	=32	=32
1I	C:maj	_	_	.	45.128	.	voice	1C 1e 1g
.	.	go	go	F	.	.	.	.
.	.	.	.	.	.	.	.	.
.	.	I	I	.	.	.	.	.
.	.	don't	don't	.	.	.	.	.
.	.	wan-	wan-	.	.	.	.	.
.	.	-na	-na	.	.	.	.	.
.	.	miss	miss	.	.	.	.	.
=33	=33	=33	=33	=33	=33	=33	=33	=33
1ii	D:min	_	_	.	46.602	.	voice	1D 1f 1a
.	.	it	it	.	.	.	.	.
.	.	when	when	.	.	.	.	.
.	.	you	you	.	.	.	.	.
.	.	hit	hit	.	.	.	.	.
.	.	that	that	.	.	.	.	.
.	.	high	high	C	.	.	.	.
=34	=34	=34	=34	=34	=34	=34	=34	=34
1I	C:maj	_	_	.	48.077	.	voice	1C 1e 1g
.	.	.	.	.	.	.	.	.
.	.	Wake	Wake	.	.	.	.	.
.	.	me	me	.	.	.	.	.
.	.	up	up	.	.	.	.	.
=35	=35	=35	=35	=35	=35	=35	=35	=35
1I	C:maj	.	.	.	49.551	newline	voice	1C 1e 1g
.	.	.	.	.	.	.	.	.
.	.	be-	be-	.	.	.	.	.
.	.	-fore	-fore	.	.	.	.	.
.	.	you	you	.	.	.	.	.
.	.	go	go	F	.	.	.	.
=36	=36	=36	=36	=36	=36	=36	=36	=36
1I	C:maj	_	_	.	51.026	.	voice	1C 1e 1g
.	.	go	go	F	.	.	.	.
.	.	.	.	.	.	.	.	.
.	.	'cause	'cause	.	.	.	.	.
.	.	I'm	I'm	.	.	.	.	.
.	.	not	not	.	.	.	.	.
.	.	.	.	.	.	.	.	.
.	.	plan-	plan-	.	.	.	.	.
=37	=37	=37	=37	=37	=37	=37	=37	=37
1ii	D:min	_	_	.	52.5	.	voice	1D 1f 1a
.	.	-nin'	-nin'	.	.	.	.	.
.	.	on	on	.	.	.	.	.
.	.	go-	go-	F	.	.	.	.
.	.	-in'	-in'	.	.	.	.	.
.	.	so-	so-	(F	.	.	.	.
=38	=38	=38	=38	=38	=38	=38	=38	=38
1I	C:maj	_	_	.	53.975	.	voice	1C 1e 1g
.	.	-lo	-lo	f)	.	.	.	.
.	.	.	.	.	.	.	.	.
.	.	Wake	Wake	.	.	.	.	.
.	.	me	me	.	.	.	.	.
.	.	up	up	.	.	.	.	.
=39	=39	=39	=39	=39	=39	=39	=39	=39
1I	C:maj	.	.	.	55.449	newline	voice	1C 1e 1g
.	.	be-	be-	.	.	.	.	.
.	.	-fore	-fore	.	.	.	.	.
.	.	you	you	.	.	.	.	.
.	.	go	go	F	.	.	.	.
=40	=40	=40	=40	=40	=40	=40	=40	=40
1I	C:maj	_	_	.	56.552	.	voice	1C 1e 1g
.	.	go	go	F	.	.	.	.
.	.	_	_	.	.	.	.	.
.	.	ah	ah	.	.	.	.	.
.	.	.	.	.	.	.	.	.
=41	=41	=41	=41	=41	=41	=41	=41	=41
2iii	E:min	Take	Take	.	57.655	.	voice	3...E 3...g 3...b
.	.	me	me	.	.	.	.	.
.	.	danc-	danc-	.	.	.	.	.
2ii	D:min	.	.	.	58.207	.	voice	4.D 4.f 4.a
.	.	-in'	-in'	.	.	.	.	.
.	.	to-	to-	.	.	.	.	.
.	.	-night	-night	C	.	.	.	.
=42	=42	=42	=42	=42	=42	=42	=42	=42
*>Letter>D	*>Letter>D	*>Letter>D	*>Letter>D	*>Letter>D	*>Letter>D	*>Letter>D	*>Letter>D	*>Letter>D
*>Label>Interlude	*>Label>Interlude	*>Label>Interlude	*>Label>Interlude	*>Label>Interlude	*>Label>Interlude	*>Label>Interlude	*>Label>Interlude	*>Label>Interlude
1Im7	C:7	_	_	.	59.861	newline	voice	1C 1e 1g 1b
.	.	_	_	.	.	.	.	.
.	.	_	_	.	.	.	.	.
=43	=43	=43	=43	=43	=43	=43	=43	=43
1IVc	F:maj/5	_	_	.	61.336	.	voice	1f 1a 1C
=44	=44	=44	=44	=44	=44	=44	=44	=44
1Im7	C:7	_	_	.	62.81	.	voice	1C 1e 1g 1b
.	.	.	.	.	.	.	.	.
=45	=45	=45	=45	=45	=45	=45	=45	=45
*	*	*	*	*	*	*	*	*
1Im7	C:7	.	.	.	64.284	.	voice	1C 1e 1g 1b
.	.	I	.	.	.	.	.	.
.	.	wan-	.	.	.	.	.	.
.	.	-na	.	.	.	.	.	.
.	.	hit	.	.	.	.	.	.
.	.	that	.	.	.	.	.	.
.	.	high	.	C	.	.	.	.
=46	=46	=46	=46	=46	=46	=46	=46	=46
1Im7	C:7	_	.	.	65.759	newline	voice	1C 1e 1g 1b
=47	=47	=47	=47	=47	=47	=47	=47	=47
1IVc	F:maj/5	_	.	.	67.239	.	voice	1f 1a 1C
=48	=48	=48	=48	=48	=48	=48	=48	=48
1Im7	C:7	_	.	.	68.719	.	voice	1C 1e 1g 1b
.	.	.	.	.	.	.	.	.
.	.	Yeah	.	.	.	.	.	.
.	.	_	.	.	.	.	.	.
.	.	yeah	.	.	.	.	.	.
=49	=49	=49	=49	=49	=49	=49	=49	=49
1Im7	C:7	_	.	.	70.2	.	voice	1C 1e 1g 1b
*	*	*	*	*	*	*	*	*
.	.	.	.	.	.	.	.	.
.	.	You	.	.	.	.	.	.
.	.	take	.	.	.	.	.	.
.	.	the	.	.	.	.	.	.
=50	=50	=50	=50	=50	=50	=50	=50	=50
*>Letter>B	*>Letter>B	*>Letter>B	*>Letter>B	*>Letter>B	*>Letter>B	*>Letter>B	*>Letter>B	*>Letter>B
*>Label>Verse	*>Label>Verse	*>Label>Verse	*>Label>Verse	*>Label>Verse	*>Label>Verse	*>Label>Verse	*>Label>Verse	*>Label>Verse
1I	C:maj	grey	.	.	71.68	newline	voice	1C 1e 1g
.	.	skies	.	.	.	.	.	.
.	.	out	.	.	.	.	.	.
.	.	of	.	.	.	.	.	.
.	.	my	.	.	.	.	.	.
.	.	way	.	B	.	.	.	.
=51	=51	=51	=51	=51	=51	=51	=51	=51
1I	C:maj	_	.	.	73.149	.	voice	1C 1e 1g
.	.	.	.	.	.	.	.	.
.	.	.	.	.	.	.	.	.
.	.	You	.	.	.	.	.	.
.	.	make	.	.	.	.	.	.
.	.	the	.	.	.	.	.	.
=52	=52	=52	=52	=52	=52	=52	=52	=52
1ii	D:min	sun	.	.	74.617	.	voice	1D 1f 1a
.	.	shine	.	.	.	.	.	.
.	.	brigh-	.	.	.	.	.	.
.	.	-ter	.	.	.	.	.	.
.	.	than	.	.	.	.	.	.
=53	=53	=53	=53	=53	=53	=53	=53	=53
1I	C:maj	Dor-	.	.	76.086	.	voice	1C 1e 1g
.	.	-is	.	.	.	.	.	.
.	.	day	.	B	.	.	.	.
.	.	_	.	.	.	.	.	.
.	.	Turned	.	.	.	.	.	.
.	.	a	.	.	.	.	.	.
=54	=54	=54	=54	=54	=54	=54	=54	=54
1I	C:maj	bright	.	.	77.555	newline	voice	1C 1e 1g
.	.	spark	.	.	.	.	.	.
.	.	in-	.	.	.	.	.	.
.	.	-to	.	.	.	.	.	.
.	.	a	.	.	.	.	.	.
.	.	flame	.	B	.	.	.	.
=55	=55	=55	=55	=55	=55	=55	=55	=55
1I	C:maj	_	.	.	79.041	.	voice	1C 1e 1g
.	.	_	.	.	.	.	.	.
.	.	_	.	.	.	.	.	.
.	.	My	.	.	.	.	.	.
.	.	_	.	.	.	.	.	.
=56	=56	=56	=56	=56	=56	=56	=56	=56
1ii	D:min	beats	.	.	80.527	.	voice	1D 1f 1a
.	.	per	.	.	.	.	.	.
.	.	mi-	.	.	.	.	.	.
.	.	-nute	.	.	.	.	.	.
.	.	ne-	.	.	.	.	.	.
.	.	-ver	.	.	.	.	.	.
=57	=57	=57	=57	=57	=57	=57	=57	=57
1I	C:maj	been	.	.	82.013	.	voice	1C 1e 1g
.	.	the	.	.	.	.	.	.
.	.	same	.	B	.	.	.	.
.	.	_	.	.	.	.	.	.
.	.	.	.	.	.	.	.	.
.	.	'Cause	.	.	.	.	.	.
=58	=58	=58	=58	=58	=58	=58	=58	=58
*>Letter>C	*>Letter>C	*>Letter>C	*>Letter>C	*>Letter>C	*>Letter>C	*>Letter>C	*>Letter>C	*>Letter>C
*>Label>Prechorus	*>Label>Prechorus	*>Label>Prechorus	*>Label>Prechorus	*>Label>Prechorus	*>Label>Prechorus	*>Label>Prechorus	*>Label>Prechorus	*>Label>Prechorus
1ii7	D:min7	you're	.	.	83.499	newline	voice	1D 1f 1a 1cc
.	.	me	.	.	.	.	.	.
.	.	la-	.	.	.	.	.	.
.	.	-dy	.	.	.	.	.	.
.	.	.	.	.	.	.	.	.
.	.	I'm	.	.	.	.	.	.
=59	=59	=59	=59	=59	=59	=59	=59	=59
1iii7	E:min7	_	.	.	84.973	.	voice	1E 1g 1b 1dd
.	.	your	.	.	.	.	.	.
.	.	fool	.	G	.	.	.	.
.	.	.	.	.	.	.	.	.
.	.	It	.	.	.	.	.	.
=60	=60	=60	=60	=60	=60	=60	=60	=60
1IV	F:maj	makes	.	.	86.448	.	voice	1F 1a 1cc
.	.	me	.	.	.	.	.	.
.	.	cra-	.	.	.	.	.	.
.	.	-zy	.	.	.	.	.	.
.	.	when	.	.	.	.	.	.
.	.	you	.	.	.	.	.	.
=61	=61	=61	=61	=61	=61	=61	=61	=61
1iii7	E:min7	_	.	.	87.922	.	voice	1E 1g 1b 1dd
.	.	act	.	.	.	.	.	.
.	.	so	.	.	.	.	.	.
.	.	cruel	.	G	.	.	.	.
.	.	.	.	.	.	.	.	.
=62	=62	=62	=62	=62	=62	=62	=62	=62
1ii7	D:min7	Come	.	.	89.397	newline	voice	1D 1f 1a 1cc
.	.	on	.	.	.	.	.	.
.	.	ba-	.	.	.	.	.	.
.	.	-by	.	.	.	.	.	.
.	.	.	.	.	.	.	.	.
.	.	let's	.	.	.	.	.	.
=63	=63	=63	=63	=63	=63	=63	=63	=63
1iii7	E:min7	_	.	.	90.869	.	voice	1E 1g 1b 1dd
.	.	not	.	.	.	.	.	.
.	.	fight	.	C	.	.	.	.
.	.	_	.	.	.	.	.	.
.	.	.	.	.	.	.	.	.
=64	=64	=64	=64	=64	=64	=64	=64	=64
1IV	F:maj	We'll	.	.	92.341	.	voice	1F 1a 1cc
.	.	go	.	.	.	.	.	.
.	.	danc-	.	.	.	.	.	.
.	.	-in'	.	.	.	.	.	.
=65	=65	=65	=65	=65	=65	=65	=65	=65
1V	G:maj	ev-	.	.	93.813	.	voice	1G 1b 1dd
.	.	-ery-	.	.	.	.	.	.
.	.	-thing	.	.	.	.	.	.
.	.	will	.	.	.	.	.	.
.	.	be	.	.	.	.	.	.
.	.	al-	.	.	.	.	.	.
.	.	-right	.	C	.	.	.	.
=66	=66	=66	=66	=66	=66	=66	=66	=66
1V	G:maj	_	.	.	95.285	.	voice	1G 1b 1dd
.	.	.	.	.	.	.	.	.
.	.	Wake	Wake	.	.	.	.	.
.	.	me	me	.	.	.	.	.
.	.	up	up	.	.	.	.	.
=67	=67	=67	=67	=67	=67	=67	=67	=67
*>Letter>B	*>Letter>B	*>Letter>B	*>Letter>B	*>Letter>B	*>Letter>B	*>Letter>B	*>Letter>B	*>Letter>B
*>Label>Chorus	*>Label>Chorus	*>Label>Chorus	*>Label>Chorus	*>Label>Chorus	*>Label>Chorus	*>Label>Chorus	*>Label>Chorus	*>Label>Chorus
1I	C:maj	.	.	.	96.758	newline	voice	1C 1e 1g
.	.	.	.	.	.	.	.	.
.	.	be-	be-	.	.	.	.	.
.	.	-fore	-fore	.	.	.	.	.
.	.	you	you	.	.	.	.	.
.	.	go	go	F	.	.	.	.
=68	=68	=68	=68	=68	=68	=68	=68	=68
1I	C:maj	_	_	.	98.238	.	voice	1C 1e 1g
.	.	go	go	F	.	.	.	.
.	.	.	.	.	.	.	.	.
.	.	Don't	Don't	.	.	.	.	.
.	.	leave	leave	.	.	.	.	.
.	.	me	me	.	.	.	.	.
.	.	.	.	.	.	.	.	.
.	.	hang-	hang-	.	.	.	.	.
=69	=69	=69	=69	=69	=69	=69	=69	=69
1ii	D:min	_	_	.	99.718	.	voice	1D 1f 1a
.	.	-in'	-in'	.	.	.	.	.
.	.	on	on	.	.	.	.	.
.	.	like	like	.	.	.	.	.
.	.	a	a	.	.	.	.	.
.	.	yo-	yo-	F	.	.	.	.
=70	=70	=70	=70	=70	=70	=70	=70	=70
1I	C:maj	_	_	.	101.198	.	voice	1C 1e 1g
.	.	-yo	-yo	F	.	.	.	.
.	.	.	.	.	.	.	.	.
.	.	Wake	Wake	.	.	.	.	.
.	.	me	me	.	.	.	.	.
.	.	up	up	.	.	.	.	.
=71	=71	=71	=71	=71	=71	=71	=71	=71
1I	C:maj	.	.	.	102.679	newline	voice	1C 1e 1g
.	.	.	.	.	.	.	.	.
.	.	be-	be-	.	.	.	.	.
.	.	-fore	-fore	.	.	.	.	.
.	.	you	you	.	.	.	.	.
.	.	go	go	F	.	.	.	.
=72	=72	=72	=72	=72	=72	=72	=72	=72
1I	C:maj	_	_	.	104.147	.	voice	1C 1e 1g
.	.	go	go	F	.	.	.	.
.	.	.	.	.	.	.	.	.
.	.	I	I	.	.	.	.	.
.	.	don't	don't	.	.	.	.	.
.	.	wan-	wan-	.	.	.	.	.
.	.	-na	-na	.	.	.	.	.
.	.	miss	miss	.	.	.	.	.
=73	=73	=73	=73	=73	=73	=73	=73	=73
1ii	D:min	_	_	.	105.616	.	voice	1D 1f 1a
.	.	it	it	.	.	.	.	.
.	.	when	when	.	.	.	.	.
.	.	you	you	.	.	.	.	.
.	.	hit	hit	.	.	.	.	.
.	.	that	that	.	.	.	.	.
.	.	high	high	C	.	.	.	.
=74	=74	=74	=74	=74	=74	=74	=74	=74
1I	C:maj	_	_	.	107.085	.	voice	1C 1e 1g
.	.	.	.	.	.	.	.	.
.	.	Wake	Wake	.	.	.	.	.
.	.	me	me	.	.	.	.	.
.	.	_	_	.	.	.	.	.
.	.	up	up	.	.	.	.	.
=75	=75	=75	=75	=75	=75	=75	=75	=75
1I	C:maj	.	.	.	108.553	newline	voice	1C 1e 1g
.	.	.	.	.	.	.	.	.
.	.	be-	be-	.	.	.	.	.
.	.	-fore	-fore	.	.	.	.	.
.	.	you	you	.	.	.	.	.
.	.	go	go	F	.	.	.	.
=76	=76	=76	=76	=76	=76	=76	=76	=76
1I	C:maj	_	_	.	110.039	.	voice	1C 1e 1g
.	.	go	go	F	.	.	.	.
.	.	.	.	.	.	.	.	.
.	.	'cause	'cause	.	.	.	.	.
.	.	I'm	I'm	.	.	.	.	.
.	.	not	not	.	.	.	.	.
.	.	.	.	.	.	.	.	.
.	.	plan-	plan-	.	.	.	.	.
=77	=77	=77	=77	=77	=77	=77	=77	=77
1ii	D:min	_	_	.	111.525	.	voice	1D 1f 1a
.	.	-nin'	-nin'	.	.	.	.	.
.	.	on	on	.	.	.	.	.
.	.	go-	go-	F	.	.	.	.
.	.	-in'	-in'	.	.	.	.	.
.	.	so-	so-	(F	.	.	.	.
=78	=78	=78	=78	=78	=78	=78	=78	=78
1I	C:maj	_	_	.	113.012	.	voice	1C 1e 1g
.	.	-lo	-lo	f)	.	.	.	.
.	.	.	.	.	.	.	.	.
.	.	Wake	Wake	.	.	.	.	.
.	.	me	me	.	.	.	.	.
.	.	up	up	.	.	.	.	.
=79	=79	=79	=79	=79	=79	=79	=79	=79
1I	C:maj	.	.	.	114.498	newline	voice	1C 1e 1g
.	.	be-	be-	.	.	.	.	.
.	.	-fore	-fore	.	.	.	.	.
.	.	you	you	.	.	.	.	.
.	.	go	go	F	.	.	.	.
=80	=80	=80	=80	=80	=80	=80	=80	=80
1I	C:maj	_	_	.	115.96	.	voice	1C 1e 1g
.	.	go	go	F	.	.	.	.
.	.	_	_	.	.	.	.	.
.	.	ah	ah	.	.	.	.	.
.	.	.	.	.	.	.	.	.
=81	=81	=81	=81	=81	=81	=81	=81	=81
2iii	E:min	Take	Take	.	117.423	.	voice	3...E 3...g 3...b
.	.	me	me	.	.	.	.	.
.	.	danc-	danc-	.	.	.	.	.
2ii	D:min	.	.	.	118.155	.	voice	4.D 4.f 4.a
.	.	-in'	-in'	.	.	.	.	.
.	.	to-	to-	.	.	.	.	.
.	.	-night	-night	C	.	.	.	.
=82	=82	=82	=82	=82	=82	=82	=82	=82
*>Letter>D	*>Letter>D	*>Letter>D	*>Letter>D	*>Letter>D	*>Letter>D	*>Letter>D	*>Letter>D	*>Letter>D
*>Label>Interlude	*>Label>Interlude	*>Label>Interlude	*>Label>Interlude	*>Label>Interlude	*>Label>Interlude	*>Label>Interlude	*>Label>Interlude	*>Label>Interlude
1Im7	C:7	_	_	.	118.886	newline	voice	1C 1e 1g 1b
.	.	_	_	.	.	.	.	.
.	.	_	_	.	.	.	.	.
=83	=83	=83	=83	=83	=83	=83	=83	=83
1IVc	F:maj/5	_	_	.	120.361	.	voice	1f 1a 1C
=84	=84	=84	=84	=84	=84	=84	=84	=84
1Im7	C:7	_	_	.	121.835	.	voice	1C 1e 1g 1b
.	.	.	.	.	.	.	.	.
=85	=85	=85	=85	=85	=85	=85	=85	=85
*	*	*	*	*	*	*	*	*
1Im7	C:7	.	.	.	123.31	.	voice	1C 1e 1g 1b
.	.	I	.	.	.	.	.	.
.	.	wan-	.	.	.	.	.	.
.	.	-na	.	.	.	.	.	.
.	.	hit	.	.	.	.	.	.
.	.	that	.	.	.	.	.	.
.	.	high	.	C	.	.	.	.
=86	=86	=86	=86	=86	=86	=86	=86	=86
1Im7	C:7	_	.	.	124.784	newline	voice	1C 1e 1g 1b
=87	=87	=87	=87	=87	=87	=87	=87	=87
1IVc	F:maj/5	_	.	.	126.27	.	voice	1f 1a 1C
=88	=88	=88	=88	=88	=88	=88	=88	=88
1Im7	C:7	_	.	.	127.756	.	voice	1C 1e 1g 1b
.	.	.	.	.	.	.	.	.
.	.	Yeah	.	.	.	.	.	.
=89	=89	=89	=89	=89	=89	=89	=89	=89
1Im7	C:7	yeah	.	.	129.242	.	voice	1C 1e 1g 1b
.	.	yeah	.	.	.	.	.	.
.	.	_	.	.	.	.	.	.
.	.	_	.	.	.	.	.	.
.	.	ba-	.	.	.	.	.	.
=90	=90	=90	=90	=90	=90	=90	=90	=90
*>Letter>B	*>Letter>B	*>Letter>B	*>Letter>B	*>Letter>B	*>Letter>B	*>Letter>B	*>Letter>B	*>Letter>B
*>Label>Solo	*>Label>Solo	*>Label>Solo	*>Label>Solo	*>Label>Solo	*>Label>Solo	*>Label>Solo	*>Label>Solo	*>Label>Solo
1I	C:maj	_	Jit-	.	130.728	newline	horns	1C 1e 1g
.	.	.	-ter-	.	.	.	.	.
.	.	-by	-bug	.	.	.	.	.
.	.	.	.	.	.	.	.	.
=91	=91	=91	=91	=91	=91	=91	=91	=91
*	*	*	*	*	*	*	*	*
1I	C:maj	.	.	.	132.209	.	horns	1C 1e 1g
=92	=92	=92	=92	=92	=92	=92	=92	=92
1ii	D:min	.	.	.	133.689	.	horns	1D 1f 1a
=93	=93	=93	=93	=93	=93	=93	=93	=93
1I	C:maj	.	.	.	135.169	.	horns	1C 1e 1g
=94	=94	=94	=94	=94	=94	=94	=94	=94
1I	C:maj	.	Jit-	.	136.649	newline	horns	1C 1e 1g
.	.	.	-ter-	.	.	.	.	.
.	.	.	-bug	H	.	.	.	.
.	.	.	.	.	.	.	.	.
=95	=95	=95	=95	=95	=95	=95	=95	=95
1I	C:maj	.	.	.	138.118	.	horns	1C 1e 1g
=96	=96	=96	=96	=96	=96	=96	=96	=96
1ii	D:min	.	.	.	139.587	.	horns	1D 1f 1a
=97	=97	=97	=97	=97	=97	=97	=97	=97
1I	C:maj	.	.	.	141.055	.	horns	1C 1e 1g
=98	=98	=98	=98	=98	=98	=98	=98	=98
*>Letter>C	*>Letter>C	*>Letter>C	*>Letter>C	*>Letter>C	*>Letter>C	*>Letter>C	*>Letter>C	*>Letter>C
*>Label>Prechorus	*>Label>Prechorus	*>Label>Prechorus	*>Label>Prechorus	*>Label>Prechorus	*>Label>Prechorus	*>Label>Prechorus	*>Label>Prechorus	*>Label>Prechorus
1ii7	D:min7	Cu-	.	H	142.524	newline	voice	1D 1f 1a 1cc
.	.	-ddle	.	.	.	.	.	.
.	.	up	.	h	.	.	.	.
.	.	.	.	.	.	.	.	.
.	.	ba-	.	.	.	.	.	.
.	.	-by	.	.	.	.	.	.
.	.	.	.	.	.	.	.	.
=99	=99	=99	=99	=99	=99	=99	=99	=99
1iii7	E:min7	Move	.	.	144.004	.	voice	1E 1g 1b 1dd
.	.	in	.	.	.	.	.	.
.	.	tight	.	C	.	.	.	.
.	.	_	.	.	.	.	.	.
.	.	.	.	.	.	.	.	.
=100	=100	=100	=100	=100	=100	=100	=100	=100
1IV	F:maj	We'll	.	.	145.485	.	voice	1F 1a 1cc
.	.	go	.	.	.	.	.	.
.	.	danc-	.	.	.	.	.	.
.	.	-in'	.	.	.	.	.	.
.	.	to-	.	.	.	.	.	.
.	.	-mor-	.	.	.	.	.	.
=101	=101	=101	=101	=101	=101	=101	=101	=101
1iii7	E:min7	_	.	.	146.965	.	voice	1E 1g 1b 1dd
.	.	-row	.	.	.	.	.	.
.	.	_	.	.	.	.	.	.
.	.	night	.	C	.	.	.	.
.	.	.	.	.	.	.	.	.
.	.	It's	.	.	.	.	.	.
=102	=102	=102	=102	=102	=102	=102	=102	=102
1ii7	D:min7	cold	.	.	148.445	newline	voice	1D 1f 1a 1cc
.	.	out	.	.	.	.	.	.
.	.	there	.	.	.	.	.	.
.	.	but	.	.	.	.	.	.
.	.	it's	.	.	.	.	.	.
=103	=103	=103	=103	=103	=103	=103	=103	=103
1iii7	E:min7	warm	.	.	149.914	.	voice	1E 1g 1b 1dd
.	.	in	.	.	.	.	.	.
.	.	bed	.	E	.	.	.	.
.	.	_	.	.	.	.	.	.
.	.	.	.	.	.	.	.	.
=104	=104	=104	=104	=104	=104	=104	=104	=104
1IV	F:maj	They	.	.	151.382	.	voice	1F 1a 1cc
.	.	can	.	.	.	.	.	.
.	.	dance	.	.	.	.	.	.
.	.	.	.	.	.	.	.	.
=105	=105	=105	=105	=105	=105	=105	=105	=105
1V	G:maj	We'll	.	.	152.851	.	voice	1G 1b 1dd
.	.	stay	.	.	.	.	.	.
.	.	_	.	.	.	.	.	.
.	.	home	.	.	.	.	.	.
.	.	in-	.	.	.	.	.	.
.	.	-stead	.	E	.	.	.	.
=106	=106	=106	=106	=106	=106	=106	=106	=106
*>Letter>B	*>Letter>B	*>Letter>B	*>Letter>B	*>Letter>B	*>Letter>B	*>Letter>B	*>Letter>B	*>Letter>B
*>Label>Instrumental	*>Label>Instrumental	*>Label>Instrumental	*>Label>Instrumental	*>Label>Instrumental	*>Label>Instrumental	*>Label>Instrumental	*>Label>Instrumental	*>Label>Instrumental
1I	C:maj	_	.	.	154.32	newline	voice	1C 1e 1g
.	.	_	.	.	.	.	.	.
.	.	_	.	.	.	.	.	.
=107	=107	=107	=107	=107	=107	=107	=107	=107
1I	C:maj	_	.	.	155.8	.	voice	1C 1e 1g
.	.	.	.	.	.	.	.	.
.	.	.	.	.	.	.	.	.
=108	=108	=108	=108	=108	=108	=108	=108	=108
1ii	D:min	.	.	.	157.28	.	voice	1D 1f 1a
=109	=109	=109	=109	=109	=109	=109	=109	=109
1I	C:maj	.	.	.	158.761	.	voice	1C 1e 1g
=110	=110	=110	=110	=110	=110	=110	=110	=110
1I	C:maj	.	Jit-	.	160.241	newline	voice	1C 1e 1g
.	.	.	-ter-	.	.	.	.	.
.	.	.	-bug	.	.	.	.	.
.	.	.	.	.	.	.	.	.
=111	=111	=111	=111	=111	=111	=111	=111	=111
1I	C:maj	.	.	.	161.715	.	voice	1C 1e 1g
=112	=112	=112	=112	=112	=112	=112	=112	=112
1ii	D:min	.	.	.	163.19	.	voice	1D 1f 1a
=113	=113	=113	=113	=113	=113	=113	=113	=113
1I	C:maj	.	.	.	164.664	.	voice	1C 1e 1g
.	.	Wake	Wake	.	.	.	.	.
.	.	me	me	.	.	.	.	.
.	.	up	up	.	.	.	.	.
=114	=114	=114	=114	=114	=114	=114	=114	=114
*>Letter>B	*>Letter>B	*>Letter>B	*>Letter>B	*>Letter>B	*>Letter>B	*>Letter>B	*>Letter>B	*>Letter>B
*>Label>Chorus	*>Label>Chorus	*>Label>Chorus	*>Label>Chorus	*>Label>Chorus	*>Label>Chorus	*>Label>Chorus	*>Label>Chorus	*>Label>Chorus
1I	C:maj	.	.	.	166.139	newline	voice	1C 1e 1g
.	.	.	.	.	.	.	.	.
.	.	be-	be-	.	.	.	.	.
.	.	-fore	-fore	.	.	.	.	.
.	.	you	you	.	.	.	.	.
.	.	go	go	F	.	.	.	.
=115	=115	=115	=115	=115	=115	=115	=115	=115
1I	C:maj	_	_	.	167.607	.	voice	1C 1e 1g
.	.	go	go	F	.	.	.	.
.	.	.	.	.	.	.	.	.
.	.	Don't	Don't	.	.	.	.	.
.	.	leave	leave	.	.	.	.	.
.	.	me	me	.	.	.	.	.
.	.	.	.	.	.	.	.	.
.	.	hang-	hang-	.	.	.	.	.
=116	=116	=116	=116	=116	=116	=116	=116	=116
1ii	D:min	_	_	.	169.076	.	voice	1D 1f 1a
.	.	-in'	-in'	.	.	.	.	.
.	.	on	on	.	.	.	.	.
.	.	like	like	.	.	.	.	.
.	.	a	a	.	.	.	.	.
.	.	yo-	yo-	F	.	.	.	.
=117	=117	=117	=117	=117	=117	=117	=117	=117
1I	C:maj	_	_	.	170.545	.	voice	1C 1e 1g
.	.	-yo	-yo	F	.	.	.	.
.	.	.	.	.	.	.	.	.
.	.	Wake	Wake	.	.	.	.	.
.	.	me	me	.	.	.	.	.
.	.	up	up	.	.	.	.	.
=118	=118	=118	=118	=118	=118	=118	=118	=118
1I	C:maj	.	.	.	172.013	newline	voice	1C 1e 1g
.	.	.	.	.	.	.	.	.
.	.	be-	be-	.	.	.	.	.
.	.	-fore	-fore	.	.	.	.	.
.	.	you	you	.	.	.	.	.
.	.	go	go	F	.	.	.	.
=119	=119	=119	=119	=119	=119	=119	=119	=119
1I	C:maj	_	_	.	173.488	.	voice	1C 1e 1g
.	.	go	go	F	.	.	.	.
.	.	.	.	.	.	.	.	.
.	.	I	I	.	.	.	.	.
.	.	don't	don't	.	.	.	.	.
.	.	wan-	wan-	.	.	.	.	.
.	.	-na	-na	.	.	.	.	.
.	.	miss	miss	.	.	.	.	.
=120	=120	=120	=120	=120	=120	=120	=120	=120
1ii	D:min	_	_	.	174.962	.	voice	1D 1f 1a
.	.	it	it	.	.	.	.	.
.	.	when	when	.	.	.	.	.
.	.	you	you	.	.	.	.	.
.	.	hit	hit	.	.	.	.	.
.	.	that	that	.	.	.	.	.
.	.	high	high	C	.	.	.	.
=121	=121	=121	=121	=121	=121	=121	=121	=121
1I	C:maj	_	_	.	176.437	.	voice	1C 1e 1g
.	.	.	.	.	.	.	.	.
.	.	Wake	Wake	.	.	.	.	.
.	.	me	me	.	.	.	.	.
.	.	_	_	.	.	.	.	.
.	.	up	up	.	.	.	.	.
=122	=122	=122	=122	=122	=122	=122	=122	=122
1I	C:maj	.	.	.	177.911	newline	voice	1C 1e 1g
.	.	.	.	.	.	.	.	.
.	.	be-	be-	.	.	.	.	.
.	.	-fore	-fore	.	.	.	.	.
.	.	you	you	.	.	.	.	.
.	.	go	go	F	.	.	.	.
=123	=123	=123	=123	=123	=123	=123	=123	=123
1I	C:maj	_	_	.	179.392	.	voice	1C 1e 1g
.	.	go	go	F	.	.	.	.
.	.	.	.	.	.	.	.	.
.	.	'cause	'cause	.	.	.	.	.
.	.	I'm	I'm	.	.	.	.	.
.	.	not	not	.	.	.	.	.
.	.	plan-	plan-	.	.	.	.	.
=124	=124	=124	=124	=124	=124	=124	=124	=124
1ii	D:min	_	_	.	180.872	.	voice	1D 1f 1a
.	.	-nin'	-nin'	.	.	.	.	.
.	.	on	on	.	.	.	.	.
.	.	go-	go-	F	.	.	.	.
.	.	-in'	-in'	.	.	.	.	.
.	.	so-	so-	(F	.	.	.	.
=125	=125	=125	=125	=125	=125	=125	=125	=125
1I	C:maj	_	_	.	182.352	.	voice	1C 1e 1g
.	.	-lo	-lo	f)	.	.	.	.
.	.	.	.	.	.	.	.	.
.	.	Wake	Wake	.	.	.	.	.
.	.	me	me	.	.	.	.	.
.	.	up	up	.	.	.	.	.
=126	=126	=126	=126	=126	=126	=126	=126	=126
1I	C:maj	_	.	.	183.832	newline	voice	1C 1e 1g
.	.	be-	.	.	.	.	.	.
.	.	-fore	be-	.	.	.	.	.
.	.	.	-fore	.	.	.	.	.
.	.	you	you	.	.	.	.	.
.	.	go	go	F	.	.	.	.
=127	=127	=127	=127	=127	=127	=127	=127	=127
1I	C:maj	_	_	.	185.313	.	voice	1C 1e 1g
.	.	go	go	F	.	.	.	.
.	.	_	_	.	.	.	.	.
.	.	ah	ah	.	.	.	.	.
.	.	.	.	.	.	.	.	.
=128	=128	=128	=128	=128	=128	=128	=128	=128
1ii	D:min	Take	Take	.	186.793	.	voice	1D 1f 1a
.	.	me	me	.	.	.	.	.
.	.	danc-	danc-	.	.	.	.	.
.	.	-in'	-in'	.	.	.	.	.
.	.	to-	to-	.	.	.	.	.
.	.	-night	-night	C	.	.	.	.
=129	=129	=129	=129	=129	=129	=129	=129	=129
1I	C:maj	_	_	.	188.273	.	voice	1C 1e 1g
.	.	_	_	.	.	.	.	.
.	.	.	.	.	.	.	.	.
.	.	Wake	Wake	.	.	.	.	.
.	.	me	me	.	.	.	.	.
.	.	up	up	.	.	.	.	.
=130	=130	=130	=130	=130	=130	=130	=130	=130
*>Letter>B	*>Letter>B	*>Letter>B	*>Letter>B	*>Letter>B	*>Letter>B	*>Letter>B	*>Letter>B	*>Letter>B
*>Label>Outro	*>Label>Outro	*>Label>Outro	*>Label>Outro	*>Label>Outro	*>Label>Outro	*>Label>Outro	*>Label>Outro	*>Label>Outro
1I	C:maj	.	.	.	189.753	newline	voice	1C 1e 1g
.	.	.	.	.	.	.	.	.
.	.	be-	be-	.	.	.	.	.
.	.	-fore	-fore	.	.	.	.	.
.	.	you	you	.	.	.	.	.
.	.	go	go	F	.	.	.	.
=131	=131	=131	=131	=131	=131	=131	=131	=131
1I	C:maj	_	_	.	191.228	.	voice	1C 1e 1g
.	.	go	go	F	.	.	.	.
.	.	.	.	.	.	.	.	.
.	.	Don't	Don't	.	.	.	.	.
.	.	.	leave	.	.	.	.	.
.	.	you	me	.	.	.	.	.
.	.	.	.	.	.	.	.	.
.	.	dare	hang-	.	.	.	.	.
=132	=132	=132	=132	=132	=132	=132	=132	=132
1ii	D:min	_	_	.	192.702	.	voice	1D 1f 1a
.	.	.	-in'	.	.	.	.	.
.	.	.	on	.	.	.	.	.
.	.	to	.	.	.	.	.	.
.	.	leave	like	.	.	.	.	.
.	.	me	a	.	.	.	.	.
.	.	.	yo-	F	.	.	.	.
=133	=133	=133	=133	=133	=133	=133	=133	=133
1I	C:maj	hang-	_	.	194.177	.	voice	1C 1e 1g
.	.	.	-yo	F	.	.	.	.
.	.	-in'	.	.	.	.	.	.
.	.	like	Wake	.	.	.	.	.
.	.	.	me	.	.	.	.	.
.	.	a	.	.	.	.	.	.
.	.	yo-	up	f	.	.	.	.
=134	=134	=134	=134	=134	=134	=134	=134	=134
1I	C:maj	_	.	.	195.651	newline	voice	1C 1e 1g
.	.	-yo	.	F	.	.	.	.
.	.	.	be-	.	.	.	.	.
.	.	_	-fore	.	.	.	.	.
.	.	_	you	.	.	.	.	.
.	.	.	go	F	.	.	.	.
=135	=135	=135	=135	=135	=135	=135	=135	=135
1I	C:maj	_	_	.	197.132	.	voice	1C 1e 1g
.	.	_	go	F	.	.	.	.
.	.	.	.	.	.	.	.	.
.	.	.	I	.	.	.	.	.
.	.	_	don't	.	.	.	.	.
.	.	.	wan-	.	.	.	.	.
.	.	.	-na	.	.	.	.	.
.	.	.	miss	.	.	.	.	.
=136	=136	=136	=136	=136	=136	=136	=136	=136
1ii	D:min	Take	_	.	198.612	.	voice	1D 1f 1a
.	.	.	it	.	.	.	.	.
.	.	me	when	.	.	.	.	.
.	.	danc-	you	.	.	.	.	.
.	.	.	hit	.	.	.	.	.
.	.	-in'	that	.	.	.	.	.
.	.	.	.	.	.	.	.	.
=137	=137	=137	=137	=137	=137	=137	=137	=137
1I	C:maj	.	.	.	200.092	.	voice	1C 1e 1g
.	.	Uh	.	.	.	.	.	.
.	.	boom	.	.	.	.	.	.
.	.	boom	Wake	.	.	.	.	.
.	.	.	me	.	.	.	.	.
.	.	boom	.	.	.	.	.	.
.	.	.	up	.	.	.	.	.
=138	=138	=138	=138	=138	=138	=138	=138	=138
1I	C:maj	boom	.	.	201.572	newline	horns	1C 1e 1g
.	.	.	.	.	.	.	.	.
.	.	.	be-	.	.	.	.	.
.	.	.	-fore	.	.	.	.	.
.	.	.	you	.	.	.	.	.
.	.	Oh	go	F	.	.	.	.
=139	=139	=139	=139	=139	=139	=139	=139	=139
1I	C:maj	_	_	.	203.047	.	horns	1C 1e 1g
.	.	.	go	F	.	.	.	.
.	.	.	.	.	.	.	.	.
.	.	.	'cause	.	.	.	.	.
.	.	.	I'm	.	.	.	.	.
.	.	.	not	.	.	.	.	.
.	.	.	.	.	.	.	.	.
.	.	.	plan-	.	.	.	.	.
=140	=140	=140	=140	=140	=140	=140	=140	=140
1ii	D:min	.	_	.	204.521	.	horns	1D 1f 1a
.	.	.	-nin'	.	.	.	.	.
.	.	.	on	.	.	.	.	.
.	.	.	go-	F	.	.	.	.
.	.	.	-in'	.	.	.	.	.
.	.	.	so-	(F	.	.	.	.
=141	=141	=141	=141	=141	=141	=141	=141	=141
1I	C:maj	.	_	.	205.996	.	horns	1C 1e 1g
.	.	Uh	-lo	f)	.	.	.	.
.	.	boom	.	.	.	.	.	.
.	.	boom	Wake	.	.	.	.	.
.	.	.	me	.	.	.	.	.
.	.	boom	.	.	.	.	.	.
.	.	.	up	.	.	.	.	.
=142	=142	=142	=142	=142	=142	=142	=142	=142
1I	C:maj	boom	.	.	207.47	newline	horns	1C 1e 1g
.	.	.	.	.	.	.	.	.
.	.	.	be-	.	.	.	.	.
.	.	.	-fore	.	.	.	.	.
.	.	.	you	.	.	.	.	.
.	.	.	go	F	.	.	.	.
=143	=143	=143	=143	=143	=143	=143	=143	=143
*	*	*	*	*	*	*	*	*
1I	C:maj	Yeah	_	.	208.956	.	horns	1C 1e 1g
.	.	.	go	F	.	.	.	.
.	.	.	_	.	.	.	.	.
.	.	.	_	.	.	.	.	.
.	.	yeah	.	.	.	.	.	.
.	.	.	.	.	.	.	.	.
.	.	yeah	.	.	.	.	.	.
=144	=144	=144	=144	=144	=144	=144	=144	=144
1ii	D:min	_	Take	.	210.442	.	horns	1D 1f 1a
.	.	.	me	.	.	.	.	.
.	.	.	danc-	.	.	.	.	.
.	.	.	-in'	.	.	.	.	.
.	.	.	to-	.	.	.	.	.
.	.	.	-night	C	.	.	.	.
=145	=145	=145	=145	=145	=145	=145	=145	=145
1I	C:maj	.	_	.	211.929	.	horns	1C 1e 1g
.	.	.	_	.	.	.	.	.
.	.	Ooh	_	.	.	.	.	.
.	.	_	.	.	.	.	.	.
.	.	ah	.	.	.	.	.	.
=146	=146	=146	=146	=146	=146	=146	=146	=146
1I	C:maj	_	.	.	213.415	newline	fadeout	1C 1e 1g
=147	=147	=147	=147	=147	=147	=147	=147	=147
1I	C:maj	_	.	.	214.872	.	fadeout	1C 1e 1g
=148	=148	=148	=148	=148	=148	=148	=148	=148
1ii	D:min	_	.	.	216.329	.	fadeout	1D 1f 1a
=149	=149	=149	=149	=149	=149	=149	=149	=149
1I	C:maj	_	.	.	217.786	.	fadeout	1C 1e 1g
.	.	.	.	.	.	.	.	.
.	.	Yeah	.	.	.	.	.	.
=150	=150	=150	=150	=150	=150	=150	=150	=150
1I	C:maj	_	.	.	219.243	newline	fadeout	1C 1e 1g
.	.	_	.	.	.	.	.	.
.	.	yeah	.	.	.	.	.	.
.	.	_	.	.	.	.	.	.
.	.	_	.	.	.	.	.	.
=151	=151	=151	=151	=151	=151	=151	=151	=151
1I	C:maj	.	.	.	220.711	.	fadeout	1C 1e 1g
=152	=152	=152	=152	=152	=152	=152	=152	=152
1ii	D:min	.	.	.	222.18	.	fadeout	1D 1f 1a
=153	=153	=153	=153	=153	=153	=153	=153	=153
1I	C:maj	.	.	.	223.649	.	fadeout	1C 1e 1g
=154	=154	=154	=154	=154	=154	=154	=154	=154
1I	C:maj	.	.	.	225.117	newline	horns voice	1C 1e 1g
=155	=155	=155	=155	=155	=155	=155	=155	=155
1I	C:maj	.	.	.	226.337	.	horns voice	1C 1e 1g
=156	=156	=156	=156	=156	=156	=156	=156	=156
1ii	D:min	.	.	.	227.556	.	horns voice	1D 1f 1a
=157	=157	=157	=157	=157	=157	=157	=157	=157
1I	C:maj	.	.	.	228.775	.	horns voice	1C 1e 1g
1r;	N	.	.	.	229.994	.	r	1r;
1r;	N	.	.	.	234.423	.	r	1r;
*-	*-	*-	*-	*-	*-	*-	*-	*-
!!!BillboardChartDate: 1984/10/27
!!!BillboardPeak: 1
!!!BillboardWeeksOnChart: 24
!!!COC: Wham!
!!!EMD: Had to remove extra measure at end of first chorus. -Nat
"!!!EMD: Renamed the ""bridge"" section prechorus."
!!!ENC: Nathaniel Condit-Schultz
!!!EST: Awating manual error checking and editing.
!!!OTL: Wake Me Up Before You Go-Go
!!!RDF**harte: Chris Harte's syntax, used by MIREX
!!!RDF**harmony: **recip + pitch class of root + harmonic quality
!!!RDF**leadinstrument: original McGill primary instrumentation annotation
!!!RDF**phrase: newline = linebreak in original McGill transcription
!!!RDF**timestamp: McGill audio timestamp in seconds
!!!RDT: 2017/01/12/
!!!SampleActualRank: 6
!!!SampleID#: 0542
!!!SampleTargetRank: 6
!!!MBID: 80033c72-aa19-4ba8-9227-afb075fec46e
